X: 171
T: Miss Devon's Reel
C: by D.Mackenzie
%O: 1795
%R: reel
Z: 2018 John Chambers <jc:trillian.mit.edu>
B: Wm. Campbell "10th Book of New and Favorite Country Dances, Strathspey Reels" 1795 p.17
F: https://archive.org/details/campbellstenthbo00camp
M: C|
L: 1/8
K: C
%%slurgraces yes
%%graceslurs yes
% - - - - - - - - - - - - - - - - - - - - - - - - -
% Voice 1 arranged for small-scale proofreading
V: 1 staves=2
E |\
c2GE CEGE | FdEc dD-DB |\
cGEG cefa | gefd ecc ::
G |\
{B}c2ec gcec | (A/B/c) GE FD-DG |\
{B}c2ec gcec | (f/g/a) gf ec-cG |
{B}c2ec gcec | (A/B/c) GE FD-DG |\
F>EFG Acde | fdgf ecc |]
% - - - - - - - - - - - - - - - - - - - - - - - - -
% Voice 1 preserves the original staff layout
V: 2 clef=bass middle=d
z |\
c'2c2 e2c2 | dfce gGG2 | c2c'g cgag | G2g2 c'2c ::
z |\
c2c2 e2c2 | fcec Ggg2 | cc'ge c3e | afgG c3z |
c2c2 e2c2 | fcec Ggg2 | agfe fedc | G2g2 c'2[cC] |]
% - - - - - - - - - - - - - - - - - - - - - - - - -
%%begintext align
%% The 1st & 2d Cu Reel on the Ladys side
%% the same on the Gents. side the 1st Cu.
%% lead down the middle up again to the top
%% and Allemande.
%%endtext
% - - - - - - - - - - - - - - - - - - - - - - - - -

%%sep 1 1 500
%%sep 1 1 500

